X:1
T:The Lark in The Morning  "CYMRU"
M:6/8
L:1/8
Q:80
C:Trad. Irish
S:Double Jig
K:HP
[| e | \
{g}A{d}A{e}A{g}A{d}A{e}A | \
{g}B{d}B{e}B{g}BdB | \
{g}A{d}A{e}A{g}Ade |
{g}fed{g}BdB | | \
{g}A{d}A{e}AAd{e}A | \
{g}B{d}B{e}B{g}BAB |
{g}defaf{g}e | \
{g}fdB{g}BdB | | \
{g}B{d}A{e}A{g}Ad{e}A |
{g}B{d}B{e}B{g}BdB | \
A{d}B{e}A{g}Ade | \
{g}fed{g}BdB| |
{gAGAG}A2d{g}dAd | \
{g}B{d}B{e}B{g}BAB | \
{g}defaf{g}e |
{g}fdB{g}BAB|]  |: \
{g}defa2{GdG}a | \
g{a}fgaf{g}e |
{g}defaf{g}e | \
{g}fdB{g}BAB | | \
{g}defaAa |
g{a}fgaf{g}d | \
g2{GdG}gf{g}ef | \
{gef}edB{g}BAB:| [ |
| {Gdc}d2f{g}fef | \
{gfg}fef{g}fef | \
{g}def{g}fef |
{gef}edB{g}BAB|]
